static/img/kroki/921acdb4212942ef4bf918a9f7c3c950.svg

<?xml version="1.0" encoding="us-ascii" standalone="no"?><svg xmlns="http://www.w3.org/2000/svg" xmlns:xlink="http://www.w3.org/1999/xlink" contentStyleType="text/css" height="374px" preserveAspectRatio="none" style="width:413px;height:374px;" version="1.1" viewBox="0 0 413 374" width="413px" zoomAndPan="magnify"><defs/><g><!--class azure_compute_virtual_machine_snapshot--><g id="elem_azure_compute_virtual_machine_snapshot"><rect codeLine="23" fill="#3D176E" height="39.7891" id="azure_compute_virtual_machine_snapshot" rx="2.5" ry="2.5" style="stroke:#000D19;stroke-width:0.5;" width="399" x="7" y="328.58"/><ellipse cx="22" cy="348.4745" fill="#ADD1B2" rx="11" ry="11" style="stroke:#181818;stroke-width:1.0;"/><path d="M24.9688,354.1152 Q24.3906,354.412 23.75,354.5527 Q23.1094,354.7089 22.4063,354.7089 Q19.9063,354.7089 18.5781,353.0683 Q17.2656,351.412 17.2656,348.287 Q17.2656,345.162 18.5781,343.5058 Q19.9063,341.8495 22.4063,341.8495 Q23.1094,341.8495 23.75,342.0058 Q24.4063,342.162 24.9688,342.4589 L24.9688,345.1777 Q24.3438,344.5995 23.75,344.3339 Q23.1563,344.0527 22.5313,344.0527 Q21.1875,344.0527 20.5,345.1308 Q19.8125,346.1933 19.8125,348.287 Q19.8125,350.3808 20.5,351.4589 Q21.1875,352.5214 22.5313,352.5214 Q23.1563,352.5214 23.75,352.2558 Q24.3438,351.9745 24.9688,351.3964 L24.9688,354.1152 Z " fill="#000000"/><text fill="#D9B8FF" font-family="Helvetica" font-size="17" lengthAdjust="spacing" textLength="357" x="41" y="354.3598">azure_compute_virtual_machine_snapshot</text></g><!--class microsoft_resource--><g id="elem_microsoft_resource"><rect codeLine="26" fill="#3D176E" height="39.7891" id="microsoft_resource" rx="2.5" ry="2.5" style="stroke:#000D19;stroke-width:0.5;" width="200" x="10.5" y="167.79"/><ellipse cx="25.5" cy="187.6845" fill="#ADD1B2" rx="11" ry="11" style="stroke:#181818;stroke-width:1.0;"/><path d="M28.4688,193.3252 Q27.8906,193.622 27.25,193.7627 Q26.6094,193.9189 25.9063,193.9189 Q23.4063,193.9189 22.0781,192.2783 Q20.7656,190.622 20.7656,187.497 Q20.7656,184.372 22.0781,182.7158 Q23.4063,181.0595 25.9063,181.0595 Q26.6094,181.0595 27.25,181.2158 Q27.9063,181.372 28.4688,181.6689 L28.4688,184.3877 Q27.8438,183.8095 27.25,183.5439 Q26.6563,183.2627 26.0313,183.2627 Q24.6875,183.2627 24,184.3408 Q23.3125,185.4033 23.3125,187.497 Q23.3125,189.5908 24,190.6689 Q24.6875,191.7314 26.0313,191.7314 Q26.6563,191.7314 27.25,191.4658 Q27.8438,191.1845 28.4688,190.6064 L28.4688,193.3252 Z " fill="#000000"/><text fill="#D9B8FF" font-family="Helvetica" font-size="17" lengthAdjust="spacing" textLength="158" x="44.5" y="193.5698">microsoft_resource</text></g><!--class resource--><g id="elem_resource"><rect codeLine="29" fill="#3D176E" height="39.7891" id="resource" rx="2.5" ry="2.5" style="stroke:#000D19;stroke-width:0.5;" width="113" x="150" y="7"/><ellipse cx="165" cy="26.8945" fill="#ADD1B2" rx="11" ry="11" style="stroke:#181818;stroke-width:1.0;"/><path d="M167.9688,32.5352 Q167.3906,32.832 166.75,32.9727 Q166.1094,33.1289 165.4063,33.1289 Q162.9063,33.1289 161.5781,31.4883 Q160.2656,29.832 160.2656,26.707 Q160.2656,23.582 161.5781,21.9258 Q162.9063,20.2695 165.4063,20.2695 Q166.1094,20.2695 166.75,20.4258 Q167.4063,20.582 167.9688,20.8789 L167.9688,23.5977 Q167.3438,23.0195 166.75,22.7539 Q166.1563,22.4727 165.5313,22.4727 Q164.1875,22.4727 163.5,23.5508 Q162.8125,24.6133 162.8125,26.707 Q162.8125,28.8008 163.5,29.8789 Q164.1875,30.9414 165.5313,30.9414 Q166.1563,30.9414 166.75,30.6758 Q167.3438,30.3945 167.9688,29.8164 L167.9688,32.5352 Z " fill="#000000"/><text fill="#D9B8FF" font-family="Helvetica" font-size="17" lengthAdjust="spacing" textLength="71" x="184" y="32.7798">resource</text></g><!--class snapshot--><g id="elem_snapshot"><rect codeLine="32" fill="#3D176E" height="39.7891" id="snapshot" rx="2.5" ry="2.5" style="stroke:#000D19;stroke-width:0.5;" width="117" x="246" y="167.79"/><ellipse cx="261" cy="187.6845" fill="#ADD1B2" rx="11" ry="11" style="stroke:#181818;stroke-width:1.0;"/><path d="M263.9688,193.3252 Q263.3906,193.622 262.75,193.7627 Q262.1094,193.9189 261.4063,193.9189 Q258.9063,193.9189 257.5781,192.2783 Q256.2656,190.622 256.2656,187.497 Q256.2656,184.372 257.5781,182.7158 Q258.9063,181.0595 261.4063,181.0595 Q262.1094,181.0595 262.75,181.2158 Q263.4063,181.372 263.9688,181.6689 L263.9688,184.3877 Q263.3438,183.8095 262.75,183.5439 Q262.1563,183.2627 261.5313,183.2627 Q260.1875,183.2627 259.5,184.3408 Q258.8125,185.4033 258.8125,187.497 Q258.8125,189.5908 259.5,190.6689 Q260.1875,191.7314 261.5313,191.7314 Q262.1563,191.7314 262.75,191.4658 Q263.3438,191.1845 263.9688,190.6064 L263.9688,193.3252 Z " fill="#000000"/><text fill="#D9B8FF" font-family="Helvetica" font-size="17" lengthAdjust="spacing" textLength="75" x="280" y="193.5698">snapshot</text></g><!--reverse link microsoft_resource to azure_compute_virtual_machine_snapshot--><g id="link_microsoft_resource_azure_compute_virtual_machine_snapshot"><path codeLine="35" d="M131.3921,223.2441 C149.8421,253.7641 176.4,297.69 194.88,328.25 " fill="none" id="microsoft_resource-backto-azure_compute_virtual_machine_snapshot" style="stroke:#FFAF37;stroke-width:2.0;"/><polygon fill="none" points="122.08,207.84,126.2574,226.3481,136.5268,220.14,122.08,207.84" style="stroke:#FFAF37;stroke-width:2.0;"/></g><!--reverse link snapshot to azure_compute_virtual_machine_snapshot--><g id="link_snapshot_azure_compute_virtual_machine_snapshot"><path codeLine="36" d="M283.225,223.1567 C264.385,253.6767 237.23,297.69 218.36,328.25 " fill="none" id="snapshot-backto-azure_compute_virtual_machine_snapshot" style="stroke:#FFAF37;stroke-width:2.0;"/><polygon fill="none" points="292.68,207.84,278.1194,220.0051,288.3306,226.3084,292.68,207.84" style="stroke:#FFAF37;stroke-width:2.0;"/></g><!--reverse link resource to microsoft_resource--><g id="link_resource_microsoft_resource"><path codeLine="37" d="M185.6079,62.4541 C167.1579,92.9741 140.6,136.9 122.12,167.46 " fill="none" id="resource-backto-microsoft_resource" style="stroke:#FFAF37;stroke-width:2.0;"/><polygon fill="none" points="194.92,47.05,180.4732,59.35,190.7426,65.5581,194.92,47.05" style="stroke:#FFAF37;stroke-width:2.0;"/></g><!--reverse link resource to snapshot--><g id="link_resource_snapshot"><path codeLine="38" d="M227.775,62.3667 C246.615,92.8867 273.77,136.9 292.64,167.46 " fill="none" id="resource-backto-snapshot" style="stroke:#FFAF37;stroke-width:2.0;"/><polygon fill="none" points="218.32,47.05,222.6694,65.5184,232.8806,59.2151,218.32,47.05" style="stroke:#FFAF37;stroke-width:2.0;"/></g><!--SRC=[bP5FJm8n4CNl-ocQS2O1YGA95oKnUY56l6-6TiesR3kRQHS2wdSN14dfyaUlytxlpPksC0e5sYgiX4KxHVQPdnjN0OCL3yoq7559B5fQW-xrK_69NBWAZC6YUCPoWS58I8dtmiYvG-_5JIGzWfpFc6gdTl61mVcDX2v4rAW4xnz2O3Ej0qPbr70wq3ebqz1MJtNxTzZ0Y1No7kbqEgexJ96hgoxUVI0cPesY6p_Qc08sQZPM_50NMsw9g6JZq5_zRCTNKCgucRYDPc-xJkoGZ-QJ0XGjjxI6qiThV4162giAHushS3XGkdyIVZa7PtBxT0BMDMCkoLQRRyyNXaCDPMv15iPXxXrKlg0WFhBiQ- -mHZ9vqY5dz5Ipn5WzDJjEEU6__sotst-iaXtI_kLATZLBfCJ1-Gq0]--></g></svg>

<svg xmlns="http://www.w3.org/2000/svg" width="413" height="374" viewBox="0 0 413 374"><rect width="399" height="39.789" x="7" y="328.58" fill="#3D176E" rx="2.5" ry="2.5" style="stroke:#000d19;stroke-width:.5"/><circle cx="22" cy="348.474" r="11" fill="#ADD1B2" style="stroke:#181818;stroke-width:1"/><path d="M24.969 354.115q-.578.297-1.219.438-.64.156-1.344.156-2.5 0-3.828-1.64-1.312-1.657-1.312-4.782t1.312-4.781q1.328-1.656 3.828-1.656.703 0 1.344.156.656.156 1.219.453v2.719q-.625-.579-1.219-.844-.594-.281-1.219-.281-1.343 0-2.031 1.078-.687 1.062-.687 3.156t.687 3.172q.688 1.062 2.031 1.062.625 0 1.219-.265.594-.281 1.219-.86z"/><text x="41" y="354.36" fill="#D9B8FF" font-family="Helvetica" font-size="17" textLength="357">azure_compute_virtual_machine_snapshot</text><rect width="200" height="39.789" x="10.5" y="167.79" fill="#3D176E" rx="2.5" ry="2.5" style="stroke:#000d19;stroke-width:.5"/><circle cx="25.5" cy="187.685" r="11" fill="#ADD1B2" style="stroke:#181818;stroke-width:1"/><path d="M28.469 193.325q-.578.297-1.219.438-.64.156-1.344.156-2.5 0-3.828-1.64-1.312-1.657-1.312-4.782t1.312-4.781q1.328-1.656 3.828-1.656.703 0 1.344.156.656.156 1.219.453v2.719q-.625-.578-1.219-.844-.594-.281-1.219-.281-1.343 0-2.031 1.078-.687 1.062-.687 3.156t.687 3.172q.688 1.062 2.031 1.062.625 0 1.219-.265.594-.281 1.219-.86z"/><text x="44.5" y="193.57" fill="#D9B8FF" font-family="Helvetica" font-size="17" textLength="158">microsoft_resource</text><rect width="113" height="39.789" x="150" y="7" fill="#3D176E" rx="2.5" ry="2.5" style="stroke:#000d19;stroke-width:.5"/><circle cx="165" cy="26.895" r="11" fill="#ADD1B2" style="stroke:#181818;stroke-width:1"/><path d="M167.969 32.535q-.578.297-1.219.438-.64.156-1.344.156-2.5 0-3.828-1.64-1.312-1.657-1.312-4.782t1.312-4.781q1.328-1.656 3.828-1.656.703 0 1.344.156.656.156 1.219.453v2.719q-.625-.578-1.219-.844-.594-.281-1.219-.281-1.344 0-2.031 1.078-.687 1.062-.687 3.156t.687 3.172q.688 1.062 2.031 1.062.625 0 1.219-.265.594-.281 1.219-.86z"/><text x="184" y="32.78" fill="#D9B8FF" font-family="Helvetica" font-size="17" textLength="71">resource</text><rect width="117" height="39.789" x="246" y="167.79" fill="#3D176E" rx="2.5" ry="2.5" style="stroke:#000d19;stroke-width:.5"/><circle cx="261" cy="187.685" r="11" fill="#ADD1B2" style="stroke:#181818;stroke-width:1"/><path d="M263.969 193.325q-.578.297-1.219.438-.64.156-1.344.156-2.5 0-3.828-1.64-1.312-1.657-1.312-4.782t1.312-4.781q1.328-1.656 3.828-1.656.703 0 1.344.156.656.156 1.219.453v2.719q-.625-.578-1.219-.844-.594-.281-1.219-.281-1.344 0-2.031 1.078-.687 1.062-.687 3.156t.687 3.172q.688 1.062 2.031 1.062.625 0 1.219-.265.594-.281 1.219-.86z"/><text x="280" y="193.57" fill="#D9B8FF" font-family="Helvetica" font-size="17" textLength="75">snapshot</text><g fill="none"><path d="M131.392 223.244c18.45 30.52 45.008 74.446 63.488 105.006" style="stroke:#ffaf37;stroke-width:2"/><path d="m122.08 207.84 4.177 18.508 10.27-6.208z" style="stroke:#ffaf37;stroke-width:2"/></g><path fill="none" d="M283.225 223.157c-18.84 30.52-45.995 74.533-64.865 105.093m74.32-120.41-14.56 12.165 10.21 6.303z" style="stroke:#ffaf37;stroke-width:2"/><g fill="none"><path d="M185.608 62.454C167.158 92.974 140.6 136.9 122.12 167.46" style="stroke:#ffaf37;stroke-width:2"/><path d="m194.92 47.05-14.447 12.3 10.27 6.208z" style="stroke:#ffaf37;stroke-width:2"/></g><path fill="none" d="M227.775 62.367c18.84 30.52 45.995 74.533 64.865 105.093M218.32 47.05l4.35 18.468 10.21-6.303z" style="stroke:#ffaf37;stroke-width:2"/></svg>
